icons/Qogir/scalable/apps/preferences-system-network-server-ftp.svg

<svg width="64" height="64" version="1.1" xmlns="http://www.w3.org/2000/svg">
 <rect x="6" y="6" width="52" height="52" rx="2" ry="2" fill="#3e4245" stroke="#000" stroke-width="2" style="paint-order:stroke markers fill"/>
 <rect x="6" y="6" width="52" height="52" rx="2" ry="2" fill="#3e4245" style="paint-order:stroke markers fill"/>
 <path d="m12 15h24v2h-24z" fill="#fff"/>
 <circle cx="43" cy="16" r="2" fill="#72d406"/>
 <circle cx="51" cy="16" r="2" fill="#72d406"/>
 <g fill="#fff">
  <path d="m12 31h24v2h-24z"/>
  <circle cx="43" cy="32" r="2"/>
  <circle cx="51" cy="32" r="2"/>
  <path d="m12 47h24v2h-24z"/>
 </g>
 <g fill-rule="evenodd">
  <rect x="6" y="22" width="52" height="3" rx="0" ry="0" fill="#00000f" opacity=".5" style="paint-order:fill markers stroke"/>
  <rect x="6" y="38" width="52" height="3" rx="0" ry="0" fill="#00000f" opacity=".5" style="paint-order:fill markers stroke"/>
  <circle cx="45" cy="45" r="18" fill="#5687e3" stroke="#3662b3" stroke-width="2" style="paint-order:fill markers stroke"/>
  <circle cx="45" cy="45" r="18" fill="#5687e3" style="paint-order:fill markers stroke"/>
 </g>
 <path d="m35 33c-1.108 0-2 0.892-2 2v20c0 1.108 0.892 2 2 2h20c1.108 0 2-0.892 2-2v-18h-9.9844l-4-4-0.01563 0.01563v-0.01563h-8zm1 2h6.1836l2.0039 2h-1.1875v0.01563l-0.01563-0.01563-4 4h-3.9844v-5c0-0.554 0.446-1 1-1zm-1 8h20v11c0 0.554-0.446 1-1 1h-18c-0.554 0-1-0.446-1-1v-6z" fill="#fff"/>
</svg>

<svg xmlns="http://www.w3.org/2000/svg" width="64" height="64"><rect width="52" height="52" x="6" y="6" fill="#3e4245" stroke="#000" stroke-width="2" rx="2" ry="2" style="paint-order:stroke markers fill"/><rect width="52" height="52" x="6" y="6" fill="#3e4245" rx="2" ry="2" style="paint-order:stroke markers fill"/><path fill="#fff" d="M12 15h24v2H12z"/><circle cx="43" cy="16" r="2" fill="#72d406"/><circle cx="51" cy="16" r="2" fill="#72d406"/><g fill="#fff"><path d="M12 31h24v2H12z"/><circle cx="43" cy="32" r="2"/><circle cx="51" cy="32" r="2"/><path d="M12 47h24v2H12z"/></g><g fill-rule="evenodd"><rect width="52" height="3" x="6" y="22" fill="#00000f" opacity=".5" rx="0" ry="0" style="paint-order:fill markers stroke"/><rect width="52" height="3" x="6" y="38" fill="#00000f" opacity=".5" rx="0" ry="0" style="paint-order:fill markers stroke"/><circle cx="45" cy="45" r="18" fill="#5687e3" stroke="#3662b3" stroke-width="2" style="paint-order:fill markers stroke"/><circle cx="45" cy="45" r="18" fill="#5687e3" style="paint-order:fill markers stroke"/></g><path fill="#fff" d="M35 33c-1.108 0-2 .892-2 2v20c0 1.108.892 2 2 2h20c1.108 0 2-.892 2-2V37h-9.984l-4-4-.016.016V33zm1 2h6.184l2.004 2H43v.016L42.984 37l-4 4H35v-5c0-.554.446-1 1-1m-1 8h20v11c0 .554-.446 1-1 1H36c-.554 0-1-.446-1-1v-6z"/></svg>
